X:1
T:C minor Oliver Holden, 1800
T:Unknown Author, First printed in 1800
T:Dissolution No copyright. Transcribed from The Modern Collection, 1800.
%%score [ 1 2 3 4 ]
L:1/8
M:4/4
K:Eb
V:1 treble nm="Treble" snm="Tr."
V:2 treble nm="Counter" snm="C."
V:3 treble-8 nm="Tenor" snm="T."
V:4 bass nm="Bass" snm="B."
V:1
 c4 | G6 e2 | d6 [ce]2 | [ce]4 c2 =B2 | c4 c4 | G4 G4 | e4 (d2 =B2) | G8 | G4 c2 c2 | c4 c4 | %10
 d2 c2 G2 G2 | c2 e2 e2 g2 | (g2 fe d2 ed/c/ | =B6) e2 | g2 fe d2 d2 | e4 (d2 c2) | =B6 ef | %17
 g2 f2 e2 d2 | c8 |] %19
V:2
 E4 | G6 A2 | (=B3 B A2) G2 | G4 G2 F2 | E4 E4 | A6 =B2 | c4 G4 | G8 | E4 E2 E2 | E4 E4 | %10
 F2 G2 G2 E2 | E2 C2 E2 E2 | (G2 AG F2 EF | D6) G2 | E2 G2 =B2 B2 | G4 E4 | E6 E2 | E2 D2 C2 D2 | %18
 C8 |] %19
V:3
 G4 | (c2 =B2 c2) AG | (F3 G F2) E2 | C4 (E3 F) | G4 G4 | (c2 e2 d2) =B2 | G4 =B4 | c8 | E4 G2 G2 | %9
w: 1.~Death|will * * dis- *|solve * * the|tender- est *|tie, That|na- * * ture|forms be-|low;|Our dear- est|
 G4 e4 | f2 ed c2 =Bc | G2 G2 E2 G2 | (e2 dc d2 c=B | G6) c2 | e2 dc d2 d2 | c4 (=B2 c2) | d6 cd | %17
w: friends are|called to * die, And *|we are left in|woe~ * * * * *|* Our|dear- est * friends are|called to *|die, and *|
 e2 d2 G2 =B2 | c8 |] %19
w: we are left in|woe.|
V:4
 C,4 | (C,2 G,,2 C,2) C,2 | =B,,6 C,2 | C,4 G,,4 | C,4 C,4 | C,4 G,4 | G,4 G,4 | C,8 | %8
 C,4 C,2 C,2 | C,4 C,4 | =B,,2 C,2 C,2 G,2 | E,2 E,2 C,2 G,2 | (C2 =B,C G,4-) | G,6 C,2 | %14
 C,2 G,2 G,2 G,2 | C4 G,4 | G,6 G,2 | E,2 F,2 G,2 G,2 | C,8 |] %19

